X:1
T:Ayrton, LM
T:Ayrton, LM
T:Carmina Sacra, by Lowell Mason, 1844
T:Public Domain Courtesy of the Cyber Hymnal™
C:Carmina Sacra, by Lowell Mason, 1844
Z:Public Domain
Z:Courtesy of the Cyber Hymnal™
%%score 1 2 3 4
L:1/8
Q:1/4=93
M:3/4
K:D
V:1 treble 
V:2 treble 
V:3 treble-8 
V:4 bass 
V:1
 A2 | GG A2 A2 | BA !fermata!A2 d2 | B^G A2 A2 | A^G !fermata!A2 z2 | z6 | z3 d cB | A6- | %8
 AB A3 G | F4 |] %10
V:2
 D2 | DD D2 D2 | EC !fermata!D2 F2 | ^GE E2 C2 | ED !fermata!C2 F2 | G>F GC DE | F3 z3 | z3 F AD | %8
 DE D2 C2 | D4 |] %10
V:3
 F2 | BB A2 D2 | GE !fermata!F2 B2 | BB e2 A2 | cB !fermata!A2 A2 | B>A BE FG | A3 z3 | z3 A dF | %8
 AG F2 E2 | D4 |] %10
V:4
 D,2 | G,G, F,2 F,2 | E,A,, !fermata!D,2 B,,2 | E,D, C,2 F,2 | E,E, !fermata!A,,2 z2 | z6 | %6
 z3 B, A,G, | F,6- | F,G, A,2 A,,2 | D,4 |] %10

